X:1
T:Title
%%score ( 1 2 ) ( 3 4 )
L:1/8
Q:1/4=105
M:6/8
K:E
V:1 treble nm="Grand Piano, Soprano"
V:2 treble 
V:3 bass nm="Choir Pad, Kano, Knowles Shaw"
V:4 bass 
V:1
 E2 E EF[EG] | [EB]3 [EG]3 | [EB]2 [EG] EF[EG] | [DF]6 | [EG]2 [EG] [EG]2 [FA] | [Fc]3 .[Ge]3 | %6
w: By~Knowles~Shaw,~1877 * * * *||||||
 [EB]2 [EG] [EG]2 [DF] | E6 | E2 E EF[EG] | [EB]3 [EG]3 | [EB]2 [EG] EF[EG] | [DF]6 | %12
w: ||||||
 [EG]2 [EG] [EG]2 [FA] | [Fc]3 .[Ge]3 | [EB]2 [EG] [EG]2 [DF] | E6 | [EB]2 [EG] [EB]2 [Ec] | %17
w: |||||
 [EB]3 .[EG]3 | [EB]2 [EG] E2 [EG] | [DF]6 | [EG]2 [EG] GA[EB] | [Ec]3 [Ee]3 | %22
w: |||||
 [EB]2 [EG] [EG]2 [DF] | E6- | E3 z3 |] %25
w: |||
V:2
 x6 | x6 | x6 | x6 | x6 | x6 | x6 | x6 | x6 | x6 | x6 | x6 | x6 | x6 | x6 | x6 | x6 | x6 | x6 | %19
 x6 | z3 .E3 | x6 | x6 | x6 | x6 |] %25
V:3
 [E,G,]2 [E,G,] G,A,[E,B,] | [E,G,]3 [E,B,]3 | [E,G,]2 [E,B,] G,A,[E,B,] | [B,,B,]6 | %4
 [E,B,]2 [E,B,] [E,B,]2 [E,B,] | A,3 .[E,B,]3 | [E,G,]2 [E,B,] [B,,B,]2 [B,,A,] | [E,G,]6 | %8
 [E,G,]2 [E,G,] G,A,[E,B,] | [E,G,]3 [E,B,]3 | [E,G,]2 [E,B,] G,A,[E,B,] | [B,,B,]6 | %12
 [E,B,]2 [E,B,] [E,B,]2 [E,B,] | A,3 .[E,B,]3 | [E,G,]2 [E,B,] [B,,B,]2 [B,,A,] | [E,G,]6 | %16
 [E,G,]2 [E,B,] [E,G,]2 A, | [E,G,]3 .[E,B,]3 | [E,G,]2 [E,B,] [E,G,]2 [E,B,] | [B,,B,]6 | %20
 [E,B,]2 [E,B,] B,-[F,B,][G,B,] | A,3 [A,C]3 | [B,,G,]2 [B,,B,] [B,,B,]2 [B,,A,] | [E,G,]6- | %24
 [E,G,]3 z3 |] %25
V:4
 z3 .E,3 | x6 | z3 .E,3 | x6 | x6 | x6 | x6 | x6 | z3 .E,3 | x6 | z3 .E,3 | x6 | x6 | x6 | x6 | %15
 x6 | x6 | x6 | x6 | x6 | z3 .E,3 | x6 | x6 | x6 | x6 |] %25

